<?xml version="1.0" encoding="UTF-8"?>
<map version="1.10" tiledversion="1.11.2" orientation="isometric" renderorder="right-down" compressionlevel="0" width="40" height="40" tilewidth="64" tileheight="32" infinite="0" nextlayerid="7" nextobjectid="54">
 <properties>
  <property name="Background" value="acdc"/>
  <property name="Name" value="Net Area 1"/>
  <property name="Song" value="resources/loops/loop_overworld.ogg"/>
 </properties>
 <tileset firstgid="1" source="../assets/tiles/floor.tsx"/>
 <tileset firstgid="4" source="../assets/tiles/warp.tsx"/>
 <tileset firstgid="10" source="../assets/tiles/hp_warp.tsx"/>
 <tileset firstgid="15" source="../assets/tiles/home_warp.tsx"/>
 <tileset firstgid="20" source="../assets/tiles/tree.tsx"/>
 <tileset firstgid="24" source="../assets/tiles/coffee.tsx"/>
 <tileset firstgid="28" source="../assets/tiles/gate.tsx"/>
 <tileset firstgid="33" source="../assets/tiles/cloud.tsx"/>
 <tileset firstgid="45" source="../assets/ezlibs-assets/ezmystery/GreenMysteryData.tsx"/>
 <layer id="1" name="Floor" width="40" height="40">
  <data encoding="csv">
0,0,0,0,0,0,0,0,0,0,0,0,3,3,3,3,0,3,3,3,3,3,0,0,0,0,0,0,0,0,0,0,0,3,3,0,0,0,0,0,
0,0,0,0,0,0,0,0,0,3,3,3,0,0,0,0,0,0,0,3,3,0,0,0,0,0,0,0,0,0,0,3,3,0,0,3,3,3,0,0,
0,0,0,0,0,0,0,3,3,3,0,0,0,3,3,3,3,3,3,3,0,0,0,0,0,0,0,0,0,0,3,3,0,0,0,0,0,3,3,0,
0,0,0,0,3,3,3,3,0,0,3,3,3,3,0,0,0,0,0,0,0,0,0,0,0,0,0,0,0,3,3,0,0,0,0,0,0,0,3,3,
0,0,0,3,3,0,0,0,0,3,3,0,0,0,0,0,0,0,0,0,0,0,0,0,0,0,0,0,0,3,0,0,0,0,0,0,0,0,0,3,
0,3,3,0,0,0,0,0,0,0,3,0,0,0,0,0,0,0,0,0,0,0,0,0,0,0,0,0,3,0,0,0,0,0,0,0,0,0,0,0,
3,3,0,0,0,0,0,0,0,0,3,3,0,0,0,0,0,0,0,0,0,0,0,0,0,0,3,3,3,3,0,0,0,0,3,0,0,0,0,0,
0,0,0,0,0,0,0,0,0,0,0,3,0,0,0,0,0,0,0,0,0,0,0,0,0,0,3,0,3,3,0,0,0,0,3,3,0,0,0,0,
0,0,0,0,0,0,0,0,0,0,0,3,0,0,0,0,0,0,0,0,0,0,0,0,3,3,0,0,0,3,3,0,0,0,0,3,0,0,0,0,
0,0,0,0,0,0,0,0,0,0,0,3,0,0,0,0,0,0,0,0,0,0,0,0,3,3,0,0,0,3,3,3,0,0,0,0,3,0,0,0,
0,0,0,0,0,0,0,0,0,0,3,0,0,0,0,0,0,0,0,0,0,0,0,0,3,0,3,0,0,3,0,0,3,0,0,0,3,0,0,0,
0,0,0,0,0,0,0,0,0,0,3,0,0,0,0,0,0,0,0,0,0,0,0,3,3,0,0,3,0,3,0,0,3,0,0,0,0,3,0,0,
0,0,0,0,0,0,0,0,0,0,3,0,0,0,0,0,0,0,0,0,0,0,0,3,3,3,0,0,3,3,0,0,0,3,0,0,0,0,3,0,
0,0,0,0,0,0,0,0,0,3,0,0,0,0,0,0,0,0,0,0,0,0,3,0,3,0,0,0,0,0,0,0,0,3,0,0,0,0,0,3,
0,0,0,0,0,0,0,0,0,3,0,0,0,0,0,0,0,0,0,0,0,0,3,0,3,0,0,0,0,0,0,0,0,0,3,0,0,0,0,0,
0,0,0,0,0,0,0,0,0,3,0,0,2,2,2,0,0,0,0,0,0,3,0,0,3,0,0,0,0,0,0,0,0,0,3,0,0,0,0,0,
0,0,0,0,0,0,0,0,3,0,0,0,2,2,2,0,0,0,0,0,0,3,0,0,3,0,0,0,0,0,0,0,0,3,3,0,0,0,0,0,
0,0,0,0,0,0,0,0,3,0,0,0,2,2,2,0,0,0,2,2,3,0,0,0,3,0,0,0,0,0,0,0,0,0,3,0,0,0,0,0,
0,0,0,0,0,0,0,3,3,0,0,0,0,1,0,0,2147483649,1,2,2,3,0,3,3,0,0,0,0,0,0,0,0,0,0,3,0,0,0,0,0,
0,0,0,0,0,0,0,3,0,0,0,0,0,2147483649,0,0,1,0,2,2,3,3,3,0,0,0,0,0,0,0,0,0,0,0,0,0,0,0,0,0,
0,0,0,0,0,0,3,3,0,0,0,0,0,1,2147483649,1,2147483649,0,0,0,2147483687,0,0,0,0,0,0,0,0,0,0,0,0,0,3,0,0,0,0,0,
0,0,0,0,0,3,3,0,0,0,0,0,0,0,0,2147483687,1,2147483686,0,38,37,2147483689,0,0,0,0,0,0,0,0,0,0,0,0,3,0,0,0,0,0,
0,0,0,0,3,3,0,0,0,0,0,0,0,33,38,37,35,35,2147483689,39,36,44,0,0,0,0,0,0,0,0,0,0,0,0,3,0,0,0,0,0,
0,0,0,3,3,0,0,0,0,0,0,0,0,0,39,36,34,34,44,38,36,43,0,0,0,0,0,0,0,0,0,0,0,0,3,0,0,0,0,0,
0,0,3,3,0,0,0,0,0,0,0,0,0,0,38,36,34,34,43,0,41,0,0,0,0,0,0,0,0,0,0,0,0,0,0,3,0,0,0,0,
3,3,3,0,0,0,0,0,0,0,0,0,0,0,0,40,2147483692,42,0,0,0,0,0,0,0,0,0,0,0,0,0,0,0,0,0,3,0,0,0,0,
3,0,0,0,0,0,0,0,0,0,0,0,0,0,0,0,0,0,0,0,0,0,0,0,0,0,0,0,0,0,0,0,0,0,0,3,0,0,0,0,
0,0,0,0,0,0,0,0,0,0,0,0,0,0,0,0,0,0,0,0,0,0,0,0,0,0,0,0,0,0,0,0,0,0,0,3,0,0,0,0,
0,0,0,0,0,0,0,0,0,0,0,0,0,0,0,0,0,0,0,0,0,0,3,3,0,0,0,0,0,0,0,0,0,0,0,3,0,0,0,0,
0,0,0,0,0,0,0,0,0,0,0,0,0,0,0,0,0,0,0,0,0,0,3,0,3,3,0,0,0,0,0,0,0,0,0,3,0,0,0,0,
0,0,0,0,0,0,0,3,3,3,3,3,0,0,0,0,0,0,0,0,0,0,3,0,0,0,3,3,0,0,0,0,0,0,0,3,0,0,0,0,
0,0,0,0,0,0,0,3,3,0,0,3,3,3,3,0,0,0,0,0,0,0,3,0,0,0,0,0,3,3,0,0,0,0,0,3,0,0,0,0,
0,0,0,0,0,0,0,0,3,0,0,0,0,0,0,3,3,3,3,3,0,3,3,0,0,0,0,0,0,3,3,0,0,0,0,3,0,0,0,0,
0,0,0,0,0,0,0,0,0,3,0,0,0,0,0,0,0,0,0,3,3,3,0,0,0,0,0,0,0,0,3,3,3,0,0,3,0,0,0,0,
0,0,0,0,0,0,0,0,0,3,3,0,0,0,0,0,0,0,0,0,0,0,0,0,0,0,0,0,0,0,0,0,3,3,0,3,0,0,0,0,
0,0,0,0,0,0,0,0,0,0,3,0,0,0,0,0,0,0,0,0,0,0,0,0,0,0,0,0,0,0,0,0,0,3,3,3,0,0,0,0,
0,0,0,0,0,0,0,0,0,0,3,0,0,0,0,0,0,0,0,0,0,0,0,0,0,0,0,0,0,0,0,0,0,0,0,3,0,0,0,0,
0,0,0,0,0,0,0,0,0,0,3,0,0,0,0,0,0,0,0,0,0,0,0,0,0,0,0,0,0,0,0,0,0,0,0,0,0,0,0,0,
0,0,0,0,0,0,0,0,0,3,3,0,0,0,0,0,0,0,0,0,0,0,0,0,0,0,0,0,0,0,0,0,0,0,0,0,0,0,0,0,
0,0,0,0,0,0,0,0,3,3,0,0,0,0,0,0,0,0,0,0,0,0,0,0,0,0,0,0,0,0,0,0,0,0,0,0,0,0,0,0
</data>
 </layer>
 <objectgroup id="5" name="Object Layer">
  <object id="18" gid="24" x="516" y="692" width="33" height="54"/>
  <object id="21" gid="20" x="617" y="611" width="44" height="61"/>
  <object id="29" gid="2147483676" x="573" y="593" width="34" height="52"/>
  <object id="33" gid="28" x="414.5" y="599.5" width="34" height="52"/>
  <object id="44" name="Bot Spawn" x="433" y="561">
   <point/>
  </object>
  <object id="46" type="Home Warp" gid="15" x="512" y="736" width="60" height="32"/>
  <object id="47" gid="2147483668" x="428" y="526" width="44" height="61"/>
  <object id="48" gid="20" x="589" y="557" width="44" height="61"/>
  <object id="49" gid="20" x="654" y="590" width="44" height="61"/>
  <object id="51" name="150 zennies" type="Mystery Option" x="480" y="608">
   <properties>
    <property name="Amount" type="int" value="150"/>
    <property name="Type" value="money"/>
   </properties>
   <point/>
  </object>
  <object id="53" name="Mystery Data" type="Mystery Data" gid="45" x="528" y="656" width="14" height="43">
   <properties>
    <property name="Next 1" type="object" value="51"/>
    <property name="Type" value="random"/>
    <property name="once" type="bool" value="false"/>
   </properties>
  </object>
 </objectgroup>
</map>
