<?xml version="1.0" encoding="UTF-8"?>
<map version="1.10" tiledversion="1.11.2" orientation="isometric" renderorder="right-down" width="40" height="40" tilewidth="64" tileheight="32" infinite="0" nextlayerid="14" nextobjectid="150">
 <properties>
  <property name="Background Animation" value="/server/assets/demo/clockman.animation"/>
  <property name="Background Texture" value="/server/assets/demo/clockman.png"/>
  <property name="Background Vel X" value="0.20"/>
  <property name="Background Vel Y" value=".1"/>
  <property name="Name" value="                  "/>
  <property name="Song" value="/server/assets/demo/space.ogg"/>
  <property name="Stasis" value="26,21,0"/>
 </properties>
 <tileset firstgid="1" source="../assets/tiles/coffee.tsx"/>
 <tileset firstgid="5" source="../assets/demo/warp.tsx"/>
 <tileset firstgid="11" source="../assets/demo/Custom_Central_Tiles.tsx"/>
 <tileset firstgid="19" source="../assets/ezlibs-assets/ezmystery/GreenMysteryData.tsx"/>
 <tileset firstgid="27" source="../assets/ezlibs-assets/ezmystery/Dark Mystery Data.tsx"/>
 <tileset firstgid="35" source="../assets/ezlibs-assets/ezmystery/BlueMysteryData.tsx"/>
 <tileset firstgid="43" source="../assets/ezlibs-assets/ezmystery/PurpleMysteryData.tsx"/>
 <tileset firstgid="51" source="../assets/ezlibs-assets/ezmystery/OrangeMysteryData.tsx"/>
 <tileset firstgid="59" source="../assets/ezlibs-assets/ezmystery/SapphireMysteryData.tsx"/>
 <tileset firstgid="67" source="../assets/tourney/ow-tourney-board.tsx"/>
 <tileset firstgid="68" source="../assets/net-game-footbomb/goal-post/goal-net.tsx"/>
 <layer id="4" name="Tile Layer 0" width="40" height="40">
  <data encoding="csv">
0,0,0,0,0,0,0,0,0,0,0,0,0,0,0,0,0,0,0,0,0,0,0,0,0,0,0,0,0,0,0,0,0,0,0,0,0,0,0,0,
0,0,0,0,0,0,0,0,0,0,0,0,0,0,0,0,0,0,0,0,0,0,0,0,0,0,0,0,0,0,0,0,0,0,0,0,0,0,0,0,
0,0,0,0,0,0,0,0,0,0,0,0,0,0,0,0,0,0,0,0,0,0,0,0,0,0,0,0,0,0,0,0,0,0,0,0,0,0,0,0,
0,0,0,0,0,0,0,0,0,0,0,0,0,0,0,0,0,0,0,0,0,0,0,0,0,0,0,0,0,0,0,0,0,0,0,0,0,0,0,0,
0,0,0,0,0,0,0,0,0,0,0,0,0,0,0,0,0,0,0,0,0,0,0,0,0,0,0,0,0,0,0,0,0,0,0,0,0,0,0,0,
0,0,0,0,0,0,0,0,0,0,0,0,0,0,0,0,0,0,0,0,0,0,0,0,0,0,0,0,0,0,0,0,0,0,0,0,0,0,0,0,
0,0,0,0,0,0,0,0,0,0,0,0,0,0,0,0,0,0,0,0,0,0,0,0,0,0,0,0,0,0,0,0,0,0,0,0,0,0,0,0,
0,0,0,0,0,0,0,0,0,0,0,0,0,0,0,0,0,0,0,0,0,0,0,0,0,0,0,0,0,0,0,0,0,0,0,0,0,0,0,0,
0,0,0,0,0,0,0,0,0,0,0,0,0,0,0,0,0,0,0,0,0,0,0,0,0,0,0,0,0,0,0,0,0,0,0,0,0,0,0,0,
0,0,0,0,0,0,0,0,0,0,0,0,0,0,0,0,0,0,0,0,0,0,0,0,0,0,0,0,0,0,0,0,0,0,0,0,0,0,0,0,
0,0,0,0,0,0,0,0,0,0,0,0,0,0,0,0,0,0,0,0,0,0,0,0,0,0,0,0,0,0,0,0,0,0,0,0,0,0,0,0,
0,0,0,0,0,0,0,0,0,0,0,0,0,0,16,16,16,16,16,16,16,16,16,16,16,16,16,16,16,16,16,16,16,16,16,16,0,0,0,0,
0,0,0,0,0,0,0,0,0,0,0,0,0,0,16,16,16,16,16,16,16,16,16,16,16,16,16,16,16,16,16,16,16,16,16,16,0,0,0,0,
0,0,0,0,0,0,0,0,0,0,0,0,0,0,16,16,16,16,16,16,16,16,16,16,16,16,16,16,16,16,16,16,16,16,16,16,0,0,0,0,
0,0,0,0,0,0,0,0,0,0,0,0,0,0,16,16,16,16,16,16,16,16,16,16,16,16,16,16,16,16,16,16,16,16,16,16,0,0,0,0,
0,0,0,0,0,0,0,0,0,0,0,0,0,0,16,16,16,16,13,13,13,13,13,13,13,13,13,13,13,13,13,13,16,16,16,16,0,0,0,0,
0,0,0,0,0,0,0,0,0,0,0,0,0,0,16,16,16,16,13,13,13,13,13,13,13,13,13,13,13,13,13,13,16,16,16,16,0,0,0,0,
0,0,0,0,0,0,0,0,0,0,0,0,0,0,16,16,16,16,13,13,13,13,13,13,13,13,13,13,13,13,13,13,16,16,16,16,0,0,0,0,
0,0,0,0,0,0,0,0,0,0,0,0,0,0,16,16,16,16,13,13,13,13,13,13,13,13,13,13,13,13,13,13,16,16,16,16,0,0,0,0,
0,0,0,0,0,0,0,0,0,0,0,0,0,0,16,16,16,16,13,13,13,13,12,12,12,12,12,12,13,13,13,13,16,16,16,16,0,0,0,0,
0,0,0,0,0,0,0,0,0,0,0,0,0,0,16,16,16,16,13,13,13,13,12,12,12,12,12,12,13,13,13,13,16,16,16,16,0,0,0,0,
0,0,0,0,0,0,0,0,0,0,0,0,0,0,16,16,16,16,13,13,13,13,12,12,12,12,12,12,13,13,13,13,16,16,16,16,0,0,0,0,
0,0,0,0,0,0,0,0,0,0,0,0,0,0,16,16,16,16,13,13,13,13,12,12,12,12,12,12,13,13,13,13,16,16,16,16,0,0,0,0,
0,0,0,0,0,0,0,0,0,0,0,0,0,0,16,16,16,16,13,13,13,13,12,12,12,12,12,12,13,13,13,13,16,16,16,16,0,0,0,0,
0,0,0,0,0,0,0,0,0,0,0,0,0,0,16,16,16,16,13,13,13,13,12,12,12,12,12,12,13,13,13,13,16,16,16,16,0,0,0,0,
0,0,0,0,0,0,0,0,0,0,0,0,0,0,16,16,16,16,13,13,13,13,13,13,13,13,13,13,13,13,13,13,16,16,16,16,0,0,0,0,
0,0,0,0,0,0,0,0,0,0,0,0,0,0,16,16,16,16,13,13,13,13,13,13,13,13,13,13,13,13,13,13,16,16,16,16,0,0,0,0,
0,0,0,0,0,0,0,0,0,0,0,0,0,0,16,16,16,16,13,13,13,13,13,13,13,13,13,13,13,13,13,13,16,16,16,16,0,0,0,0,
0,0,0,0,0,0,0,0,0,0,0,0,0,0,16,16,16,16,13,13,13,13,13,13,13,13,13,13,13,13,13,13,16,16,16,16,0,0,0,0,
0,0,0,0,0,0,0,0,0,0,0,0,0,0,16,16,16,16,16,16,16,16,16,16,16,16,16,16,16,16,16,16,16,16,16,16,0,0,0,0,
0,0,0,0,0,0,0,0,0,0,0,0,0,0,16,16,16,16,16,16,16,16,16,16,16,16,16,16,16,16,16,16,16,16,16,16,0,0,0,0,
0,0,0,0,0,0,0,0,0,0,0,0,0,0,16,16,16,16,16,16,16,16,16,16,16,16,16,16,16,16,16,16,16,16,16,16,0,0,0,0,
0,0,0,0,0,0,0,0,0,0,0,0,0,0,16,16,16,16,16,16,16,16,16,16,16,16,16,16,16,16,16,16,16,16,16,16,0,0,0,0,
0,0,0,0,0,0,0,0,0,0,0,0,0,0,0,0,0,0,0,0,0,0,0,0,0,0,0,0,0,0,0,0,0,0,0,0,0,0,0,0,
0,0,0,0,0,0,0,0,0,0,0,0,0,0,0,0,0,0,0,0,0,0,0,0,0,0,0,0,0,0,0,0,0,0,0,0,0,0,0,0,
0,0,0,0,0,0,0,0,0,0,0,0,0,0,0,0,0,0,0,0,0,0,0,0,0,0,0,0,0,0,0,0,0,0,0,0,0,0,0,0,
0,0,0,0,0,0,0,0,0,0,0,0,0,0,0,0,0,0,0,0,0,0,0,0,0,0,0,0,0,0,0,0,0,0,0,0,0,0,0,0,
0,0,0,0,0,0,0,0,0,0,0,0,0,0,0,0,0,0,0,0,0,0,0,0,0,0,0,0,0,0,0,0,0,0,0,0,0,0,0,0,
0,0,0,0,0,0,0,0,0,0,0,0,0,0,0,0,0,0,0,0,0,0,0,0,0,0,0,0,0,0,0,0,0,0,0,0,0,0,0,0,
0,0,0,0,0,0,0,0,0,0,0,0,0,0,0,0,0,0,0,0,0,0,0,0,0,0,0,0,0,0,0,0,0,0,0,0,0,0,0,0
</data>
 </layer>
 <objectgroup id="7" name="Object Layer 0">
  <object id="148" gid="68" x="760" y="664" width="208" height="64"/>
  <object id="149" type="Custom Warp" gid="6" x="800" y="832" width="61" height="32">
   <properties>
    <property name="Direction" propertytype="Direction" value="Up Right"/>
    <property name="Dont Teleport" type="bool" value="false"/>
    <property name="Target Area" value="default"/>
    <property name="Target Object" value="145"/>
    <property name="Warp In" type="bool" value="true"/>
   </properties>
  </object>
 </objectgroup>
</map>
